X:1
T:6 Lieder, Op.48
T:Busslied
T:6 Lieder, Op.48
T:6. Busslied
T:Ludwig van Beethoven
T:Christian Fürchtegott Gellert
T:OpenScore (CC0)
T:OpenScore (CC0)
T:OpenScore (CC0)
T:OpenScore (CC0)
T:OpenScore (CC0)
T:OpenScore (CC0)
C:Ludwig van Beethoven
Z:Christian Fürchtegott Gellert
Z:OpenScore (CC0)
%%score 1 { ( 2 4 ) | ( 3 5 ) }
L:1/8
Q:1/4=80
M:3/4
K:C
V:1 treble nm="Singstimme\nVoice"
V:2 treble nm="Pianoforte"
V:4 treble 
V:3 bass 
V:5 bass 
V:1
"^Poco adagio""^(Etwas langsam)" E2 | A3 B c ^c | d3 e (g/f/) (e/d/) | =c2 B2 z B | %4
w: An|dir al- lein, an|dir hab' ich * ge- *|sün- digt, und|
 B3/2 B/ B B B c | (c2 B2) z B | e3 d c B | ^A3/2 A/ g3 A | ^A2 B2 z B | =c3 B ^d e | %10
w: ü- bel  oft vor dir ge-|than. * Du|siehst die  Schuld, die|mir den  Fluch ver-|kün- digt; sieh,|Gott, auch mei- nen|
 e2 ^F2 (3(FA) c | (c2 B3) ^D | E2 z2 z2 | z6 | z6 | z2 z2 B2 | B4 B2 | (c2 B) z z B | B3 c ^F B | %19
w: Jam- mer, mei- * nen|Jam- * mer|an.|||Dir|ist mein|Flehn, * mein|Seuf- zen  nicht  ver-|
 A2 G2 z G | ^G4 G2 | A4 (Bc) | d4 (d/c/B/c/) | (c2 B) z z E | A3 B c ^c | d3 e (g/f/) (e/d/) | %26
w: bor- gen und|mei- ne|Thrä- nen *|sind vor * * *|dir. * Ach|Gott, mein Gott, wie|lan- ge soll * ich *|
 =c2 B2 z B | B3/2 B/ B B B c | ((c2 B2)) z B | d3 c B A | ^G G f3 G | B2 A2 z A | B4 B2 | %33
w: sor- gen? wie|lang' ent- fernst du dich von|mir? * Herr,|hand- le  nicht  mit|mir  nach mei- nen|Sün- den, ver-|gilt mir|
{d} ^c2 z2 z c | d3 d e e | (f3 g/f/) (e/d/) (=c/B/) | A4 (c>B) | A2 z2 z2 | z B (B2 dc) | %39
w: nicht, ver-|gilt mir  nicht  nach|mei- * * ner, * nach *|mei- ner *|Schuld.|Ich su- che *|
 B2 z2 z2 | z B B B d c | c B z2 z c | B4 B2 | c3 c B A | ^G2 z2 e2 | %45
w: dich;|lass  mich  dein Ant- litz|fin- den, du|Gott der|Lang- muth und Ge-|duld der|
[Q:1/4=70]"^Adagio" !fermata!^d3!p! c B A |[Q:1/4=120]"^Tempo I" E2 z2 z2 | !fermata!z4 || %48
w: Lang- muth und Ge-|duld.||
[K:A][M:3/4][Q:1/4=120]"^Allegro ma non troppo""^(Geschwind doch nicht zu viel)" z2 | z6 | z6 | %51
w: |||
 z6 | z6 | z6 | z6 | z6 | z2 z2 E2 | A4 A2 | B4 B2 | c3 B c d | c2 B2 B2 | B4 (c^d) | e4 (cf) | %63
w: |||||Früh|wollst du|mich mit|dei- ner  Gna- de|fül- len, Gott,|Va- ter *|der Barm- *|
 e4 ^d2 | e2 z2 z e | e4 (cA) | (e2 d2) c2 | B f (ed) (cB) | A2 G2 z E | A4 (Bc) | d4 (ef) | %71
w: her- zig-|keit. Er-|freu- e *|mich * um|dei- nes Na- * mens *|wil- len; du|bist ein *|Gott, der *|
 (e3 c) (dB) | A2 z2 z2 | z2 z2 z E | A4 A2 | B4 B2 | c3 B c d | c2 B2 z B | B4 (c^d) | e4 (cf) | %80
w: gern * er- *|freut.|Lass|dei- nen|Weg mich|wie- der freu- dig|wal- len, und|leh- re *|mich dein *|
 e4 ^d2 | e2 z e e e | e3 e c A | (e2 d2) c2 | B f (ed) (cB) | A2 G2 z E | A4 (Bc) | d4 (ef) | %88
w: hei- lig|Recht, dein hei- lig|Recht, mich täg- lich|thun _ nach|dei- nem Wohl- * ge- *|fal- len; du|bist mein *|Gott, ich *|
 (e3 c) (dB) | A2 z2 z2 | z2 z2 E2 | A4 A2 | B4 B2 | c3 B c (e/d/) | c2 B2 z B | B4 (c^d) | %96
w: bin _ dein *|Knecht.|Herr,|ei- le|du, mein|Schutz, mir bei- zu- *|ste- hen, und|lei- te *|
 e4 (cf) | e4 ^d2 | e2 z2 z e | e4 (cA) | (e2 d) z c2 | B f (ed) (cB) | A2 G2 z E | A4 (Bc) | %104
w: mich auf *|eb- ne|Bahn. Er|hört mein *|Schrein, * der|Herr er- hört * mein *|Fle- hen, und|nimmt sich *|
 d4 (ef) | (e3 c) (dB) | A2 z2 A2 | B3 B B B |{d} c2 z2 c2 | d3 d d d |{f} e2 z2 e2 | f4 d2 | %112
w: mei- ner *|See- * len *|an. Der|Herr er- hört mein|Schrein, der|Herr er- hört mein|Flehn, und|nimmt sich|
 A4 A2 | A4 A2 | !fermata!A6 |] %115
w: mei- ner|See- len|an.|
V:2
!mp! E2 | [CEA]3 Bc^c |"_cresc." [Ad]3 [Ae][Af][Ad] |!p! .[A=c]2 .[^GB]2 z!p! [GB] | %4
"_cresc." [AB]>[AB] [AB][AB][AB][Ac] | ([Ac]2 [^GB]2) z!p! B |"_cresc." [Ee]3 [Dd][Cc][B,B] | %7
!f! [C^A]>[CA] [CA]3 [CA] |!p! (([CA]2 [^DB]2)) z B | [=A=c]3 [GB][A^d][Ge] | %10
 z [CE^F][CEF][CEF] z!p! [CEF] | z [B,EG] z [B,EG] z [^F,A,^D] | [G,E]"_cresc." B2 (B^de) | %13
!>(! (e2 ^F)!>)! z!p! (3(FAc) | (c2 B3) (^D | [A,^D^F]2 [G,E]) z z2 | %16
!p! z [B,EG][B,EG][B,EG][B,EG][B,EG] | z [B,^FA][B,FA][B,FA][B,FA][B,FA] | %18
 z [B,^DA][B,DA][B,DA][B,DA][B,DA] | z [B,EG][B,EG][B,EG][B,EG][B,EG] | %20
 z"_cresc." [B,E^G][B,=FG][B,EG][B,EG][B,EG] | z [CEA][CFA][CEA]([D^GB][EAc]) | %22
 z ([EBd][FBd][EBd])"_dim."[EAc][EAc] | z!p! ([^DAc][E^GB])"_cresc." (FE[^G,=D]) | %24
!p! [A,C]2 z2 z2 |"_cresc." [Ad]3 [Ae][Af][Ad] |!p! .[A=c]2 .[^GB]2 z!p! [GB] | %27
"_cresc." [AB]>[AB] [AB][AB][AB][Ac] | ([Ac]2 [^GB]2) z!p! [B,B] | [Dd]3"_cresc." [Cc][B,B][A,A] | %30
!f! [^G,^G]>[B,G] [B,G]3 [B,G] |!p! ([B,^G]2 [CA]2) z2 | z"_cresc." [FAB][FAB][FAB][FAB][FAB] | %33
 z [=GA^c][GAc][GAc][GAc][GAc] | z [Ad][Ad][Ad][Ae][Ae] |!f! f4-"_dim." f[^GB] | %36
!p! z [C^FA] z [CEA] z [=DE^G] | [CEA] [Ee]2!p! ([Ee][E^Gd][EAc]) | [EB]2 ([E^GB]2 [EAc]2) | %39
 [E^GB] [Ee]2!p! ([Ee][E^Gd][EAc]) | [EB]2 ([E^GB]2 [EAc]2) | [E^GB] [Ee]2 ([Ee][E^Gd][EAc]) | %42
 [FAB]4 [FAB]2 |"_dim." [^FAc]4 [CFA]2 |!p! [B,E^G]2"_cresc." [Ge]2 [Ge]2 | !fermata![A^d]6 | %46
!p! [^Ge]4 [^G,B,E]2 | !fermata![^G,B,E]4 ||[K:A][M:3/4]!p! z2 | z6 | z6 | z6 | z4 z!p! [G,B,] | %53
 ([A,B,]4 C^D) | (E4 CF) | (E4 ^D2) | [G,E]2 z2 z2 | z (e/^d/ ecBA) | (GFEDCB,) | %59
 (CE/A/) (c[EB][EAc][FBd]) | (c2 B2) B2 |"_cresc." Aa/g/ af^dA | (Be/^d/ eGc[Af]) |!p! e4 ^d2 | %64
"_cresc." [Ge]E[G,B,]E[G,B,]E | [A,CE]!p!A/G/ AECA, |"_cresc." AA/G/ (AA,^A^A,) | %67
 (B[Ff])([Fe][Fd][Ec][DB]) | (A2 G2) G2 | x2 e2 =dc | x2 a2 =gf |!p! (cecA ^GD) | C z z2 z2 | %73
 z"_cresc." (f/g/ e/f/d/e/ c/d/B/c/) |!p! A/E/A/c/ e/E/A/c/ e/c/B/A/ | B/E/G/B/ e/E/G/B/ e/d/c/B/ | %76
 c/E/A/c/ e/E/e/E/ e/E/e/E/ | e/E/e/E/ e/E/e/E/ e/g/f/e/ |"_cresc." ^d/A/d/f/ a/g/f/e/ d/c/B/A/ | %79
 G/B/e/g/ b/B/b/B/ c/a/b/a/ |!f! B/g/a/g/ B/g/a/g/ A/f/g/f/ |!p! [Ge]B,/A,/ G,/A,/B,/C/ D/E/F/G/ | %82
"_cresc." A/E/C/A,/ A/E/C/A,/ A/E/C/A,/ | A/F/D/A,/ A/F/D/A,/ ^A/^A,/A/A,/ | %84
 BF/f/ F/e/F/"_dim."d/ E/c/D/B/ |!p! C/E/A/E/"_cresc." B,/E/G/E/ B,/E/G/E/ | %86
 A/!mp!A,/C/E/ A/E/e/E/ G/E/[Ac]/E/ | d/!mp!A/d/f/ a/A/a/A/ [c=g]/A/f/A/ | %88
 c/e/c/A/ E/c/A/E/ D/^G/E/D/ | C z z2 z2 | z"_cresc." (A/B/ G/A/F/G/ E/F/D/E/) | %91
!f! C z [CEA]2 [CEA]2 | [EGB]4 [EGB]2 | [EAc]3 [EB][EAc][FBd] | (([Ac]2 [GB]2)) z [EGB] | %95
"_cresc." [AB]4 c^d | e4!mp!!mp! (c!mp!f) |!p! [GBe]4 [FB^d]2 | [GBe]2 z2 z [Ee] | %99
"_cresc." [Ee]4 [Cc][A,A] | (([Ee]2 [Dd])) z [Cc]2 | (B[Ff]) ([Ee][Dd][Cc][B,B]) | %102
 [CEA]2 [B,EG]2 z E | A3!mp! [Ee][EGd][EAc] | d3!mp! [Aa][Ac=g][Adf] |!p! [Ace]3 ([Ac][^Gd][DG]) | %106
 [CA](a/g/) a/g/!mp!f/!p!e/"_cresc." d/c/B/A/ | B(b/^a/) b/=a/g/f/ e/d/c/B/ | %108
 c(c'/^b/) c'/=b/a/=g/ f/e/d/c/ | d(d'/c'/) d'/c'/b/a/ =g/f/e/d/ | %110
 e(e'/^d'/) e'/=d'/c'/b/ a/=g/f/e/ |!f! f/"_dim."a/f/d/ A/f/d/A/ F/d/A/F/ | %112
 D/A/F/D/ A,/A/F/D/!mf! A,/A/=G/E/ | A,/A/F/D/ A,/"_dim."A/F/D/ A,/A/F/D/ |!p! !fermata![A,A]6 |] %115
V:3
 z2 | [A,,C,E,A,]3 z z2 | F3 ^CD!tenuto!F | .E2 .E,2 z E | ^D>D DDDD | ((E2 E,2)) z2 | %6
 z2 [E,=G,]2 [E,G,]2 | [E,G,]>[E,G,] [E,G,]3 [E,G,] | ([E,G,]2 [^D,^F,]2) z2 | ^D3 E[B,^F][CE] | %10
 [A,,A,]4 [A,,A,]2 | B,,2 B,,2 [B,,,B,,]2 | [E,,E,]2 z ([G,B,][^F,A,][E,G,]) | [A,C]3 z z2 | %14
 z2 [B,,E,G,]2 [B,,^F,A,]2 | E,,2 E, z z2 | [E,,E,]6 | [^D,,^D,]6 | [B,,,B,,]6 | [E,,E,]6 | %20
 [=D,,=D,]6 | ([C,,C,]4 [B,,,B,,][A,,,A,,]) | [^G,,,^G,,]4 [A,,,A,,]2 | %23
 [E,,E,]3 [D,E,][C,E,][B,,E,] | [A,,E,]2 z2 z2 | F3 ^CDF | .E2 .E,2 z E | ^D>D DDDD | (E2 E,2) z2 | %29
 z2 [F,A,][E,=G,][D,F,][C,E,] | [B,,D,]>[D,F,] [D,F,]3 [D,F,] | ([D,F,]2 [C,E,]2) z2 | %32
 [D,,D,]4 [D,,D,]2 | [E,,E,]4 [E,,E,]2 | [F,,F,]4 [^C,,^C,]2 | [D,,D,]4- [D,,D,]D, | %36
 ^D, z E, z E,, z | A,,2 z (CB,A,) | (^G,2 E,2 A,2) | E,2 z (CB,A,) | (^G,2 E,2 A,2) | %41
 E,^G,/>"_dim."B,/ (DCB,A,) | D4 D2 | ^D4 ^D,2 | E,2 [E,,E,]2 [E,,E,]2 | !fermata![=F,,=F,]6 | %46
 [E,,E,]4 [E,,E,]2 |"_Attacca subito" !fermata![E,,E,]4 ||[K:A][M:3/4] E,2 | A,4 A,2 | %50
 B,4 [E,G,B,]2 | [E,A,C]3 ([E,B,][E,C][F,B,D]) | ([A,C]2 [G,B,]2) x2 | F,,F,/^E,/ F,^D,A,,F,, | %54
 G,,G,/F,/ G,E,A,A,, | G,B,/^A,/ B,G,F,=A, | E,,(E,/^D,/ E,)=D,C,B,, | (A,,4 C,2 | E,4 E,,2) | %59
 (A,,C,/E,/) (A,G,A,D,) | E,2 E,,2 E,2 | F,2 F,,2 F,2 | G,G,/F,/ G,E,A,F, | B,2 B,,2 B,2 | %64
 E,2 ([E,,E,]2 [D,,D,]2) | [C,,C,]4 [=G,,=G,]2 | [F,,F,]4 [E,,E,]2 | %67
 ([D,,D,][^A,,,^A,,])[B,,,B,,]([B,,,B,,][C,,C,][D,,D,]) |!p! E,2 E,,2 [D,,D,]2 | %69
 [C,,C,]4 ([B,,,B,,][A,,,A,,]) | [F,,F,]4 ([E,,E,][D,,D,]) | E,,2 E,2 E,,2 | %72
 A,,[K:treble] (AGFED) |[K:bass] CDCB,A,[E,G,] | [C,A,]4 [C,A,]2 | [E,B,]4 [E,B,]2 | %76
 [A,C]3 [G,B,][A,C][B,D] | [A,C]2 [G,B,]2 z [G,B,] | B,4 C^D | [E,E]2 G,G,A,F, | B,B,,B,B,,B,B,, | %81
 E,E,, E,3 D, | C,4 [=G,,=G,]2 | [F,,F,]4 [E,,E,]2 | %84
 ([D,,D,][^A,,,^A,,])[B,,,B,,]([B,,,B,,][C,,C,][D,,D,]) | E,2 (E,,2 [D,,D,]2 | %86
 [C,,C,]3) ([C,,C,][B,,,B,,][A,,,A,,]) | [F,,F,]3 ([F,,F,][E,,E,][D,,D,]) | E,,E,E,,E,E,,E, | %89
 A,, (A,/B,/ G,/A,/F,/G,/ E,/F,/D,/E,/) | C,(F,/G,/ E,/F,/D,/E,/ C,/D,/B,,/C,/) | %91
 A,,/E,/A,/G,/ A,/G,/F,/E,/ D,/C,/B,,/A,,/ | G,,/F,,/E,,/^D,,/ E,,/G,,/B,,/^D,/ E,/=D,/C,/B,,/ | %93
 A,,/C,/E,/A,/ A,,/A,/G,,/G,/ A,,/A,/D,,/D,/ | E,,/A,,/C,/E,/ E,,/G,,/B,,/E,/ E,,/G,,/B,,/E,/ | %95
 F,,/F,/^E,/F,/ ^D,/F,/A,,/D,/ F,,/A,,/D,/F,/ | G,,/G,/F,/G,/ G,,/G,/E,,/E,/ A,,/A,/F,,/F,/ | %97
 B,,/E,/G,/B,/ B,,/E,/G,/B,/ B,,/F,/A,/B,/ | E,/G,/B,/A,/ G,/F,/E,/^D,/ E,/F,/=D,/E,/ | %99
 C,/E,/=G,/F,/ E,/D,/C,/B,,/ A,,/B,,/=G,,/A,,/ | F,,/A,,/D,/F,/ F,,/A,,/D,/F,/ E,,/=G,,/^A,,/C,/ | %101
 D,,/D,/^A,,,/^A,,/ B,,,/B,,/B,,,/B,,/ C,,/C,/D,,/D,/ | %102
 E,,/A,,/C,/E,/ E,,/E,/^D,/E,/ E,,/E,/=D,,/=D,/ | %103
 C,,/!mf!E,,/A,,/C,/ C,,/C,/C,,/C,/ B,,,/B,,/A,,,/A,,/ | %104
 F,,/!mf!A,,/D,/F,/ F,,/F,/F,,/F,/ E,,/E,/D,,/D,/ | E,,/A,,/C,/E,/ E,,/A,,/C,/E,/ E,,/B,,/D,/E,/ | %106
 A,,2 z [A,C][A,C][A,C] | [A,D]3 [A,D][A,D][A,D] | [A,E]3 [A,E][A,E][A,E] | %109
 [A,F]3 [A,F][A,F][A,F] | [A,CE=G]4 [A,CEG]2 | [D,D]4 [D,,D,]2 | [D,,D,]4 [C,,C,]2 | %113
 ([D,,D,]2 [F,,F,]2 [D,,D,]2) | !fermata![A,,,A,,]6 |] %115
V:4
 x2 | x6 | x6 | x6 | x6 | x6 | x6 | x6 | x6 | x6 | x6 | x6 | x6 | x6 | x6 | x6 | x6 | x6 | x6 | %19
 x6 | x6 | x6 | x6 | x6 | x6 | x6 | x6 | x6 | x6 | x6 | x6 | x6 | x6 | x6 | x6 | (A_B =B2-) B F | %36
 x6 | x6 | x6 | x6 | x6 | x6 | x6 | x6 | x6 | x6 | x6 | x4 ||[K:A][M:3/4] x2 | x6 | x6 | x6 | x6 | %53
 x6 | x6 | x6 | x6 | x6 | x6 | x6 | AE GE GE | x6 | x6 | (GB/A/ GBFA) | x6 | x6 | x6 | x6 | %68
 CE B,E B,E | A!mp!e/^d/ eE- E2 | d!mp!a/g/ aA- A2 | x6 | x6 | x6 | x6 | x6 | x6 | x6 | x6 | x6 | %80
 x6 | x6 | x6 | x6 | x6 | x6 | x6 | x6 | x6 | x6 | x6 | x6 | x6 | x6 | E4 x2 | x6 | B3!mf! GcA | %97
 x6 | x6 | x6 | x6 | x6 | x6 | x6 | x6 | x6 | x6 | x6 | x6 | x6 | x6 | x6 | x6 | x6 | x6 |] %115
V:5
 x2 | x6 | x6 | x6 | x6 | x6 | x6 | x6 | x6 | x6 | x6 | x6 | x6 | x6 | x6 | x6 | x6 | x6 | x6 | %19
 x6 | x6 | x6 | x6 | x6 | x6 | x6 | x6 | x6 | x6 | x6 | x6 | x6 | x6 | x6 | x6 | x6 | x6 | x6 | %38
 x6 | x6 | x6 | x6 | x6 | x6 | x6 | x6 | x6 | x4 ||[K:A][M:3/4] z2 | z (F,/E,/ D,C,B,,A,,) | %50
 (G,,F,,E,,D,,C,,B,,,) | (A,,,C,,/E,,/) (A,,G,,A,,D,,) | E,,E,/^D,/ E,B,,G,,E,, | x6 | x6 | %55
 B,,2 B,,,2 B,,2 | x6 | x6 | x6 | x6 | x6 | x6 | x6 | x6 | x6 | x6 | x6 | x6 | x6 | x6 | x6 | x6 | %72
 x[K:treble] x5 |[K:bass] x6 | x6 | x6 | x6 | x6 | F,4 F,2 | x6 | x6 | x6 | x6 | x6 | x6 | x6 | %86
 x6 | x6 | x6 | x6 | x6 | x6 | x6 | x6 | x6 | x6 | x6 | x6 | x6 | x6 | x6 | x6 | x6 | x6 | x6 | %105
 x6 | x6 | x6 | x6 | x6 | x6 | x6 | x6 | x6 | x6 |] %115

